X: 21242
T: STRANGERS' HORNPIPE
C: By Alex. McAndrew
R: hornpipe
B: K\"ohler's Violin Repository, v.2, 1885 p.124 #2
F: http://www.archive.org/details/klersviolinrepos02rugg
Z: 2012 John Chambers <jc:trillian.mit.edu>
M: C|
L: 1/8
K: Bb
(dc) |\
(B>F)D>F {cBA}B2B>c | (d>B)A>B G>E~E2 | (c>G)^F>G ~"\="c2c>d | (e>d)c>B A>F"\="~F2 |
BF~"\="F2 cF~"\="F2 | (d>c)d>e (f>g)a>b | (g>f)e>d (c>B)A>B | (3cde (3fga b2 :||: u(f>e) |
d>f (3fdB F>B ~"\="B2 | e>g (3gec A>c ~"\="c2 | d>b (3bfd c>g (3gec | (B>A)c>B (A>G)F>E |
(3DFB d2 (3EGc e2 | (3FBd f2 (3Gce g2 | (3fdf (3ece (3dcB (3ABc | d2B2 B2 :|

%%sep 2 1 500

